logos/gridsome-icon.svg

<?xml version="1.0" encoding="UTF-8"?>
<svg width="256px" height="256px" viewBox="0 0 256 256" version="1.1" xmlns="http://www.w3.org/2000/svg" xmlns:xlink="http://www.w3.org/1999/xlink" preserveAspectRatio="xMidYMid">
    <defs>
        <linearGradient x1="20.9379706%" y1="135.775348%" x2="67.3305702%" y2="141.765059%" id="linearGradient-1">
            <stop stop-color="#1A7D75" offset="0%"></stop>
            <stop stop-color="#1A8864" offset="100%"></stop>
        </linearGradient>
        <linearGradient x1="5.87891947%" y1="11.1173081%" x2="-17.3060707%" y2="72.2714937%" id="linearGradient-2">
            <stop stop-color="#168A81" offset="1.29262%"></stop>
            <stop stop-color="#31A97F" offset="100%"></stop>
        </linearGradient>
        <linearGradient x1="-144.300883%" y1="53.4330921%" x2="-70.3570682%" y2="117.633897%" id="linearGradient-3">
            <stop stop-color="#27A59B" offset="0%"></stop>
            <stop stop-color="#64D8A2" offset="100%"></stop>
        </linearGradient>
        <linearGradient x1="-143.418979%" y1="60.4705186%" x2="-4.6930745%" y2="180.917352%" id="linearGradient-4">
            <stop stop-color="#27A59B" offset="0%"></stop>
            <stop stop-color="#64D8A2" offset="100%"></stop>
        </linearGradient>
        <linearGradient x1="208.845261%" y1="-141.921386%" x2="86.1110263%" y2="-183.711114%" id="linearGradient-5">
            <stop stop-color="#27A59B" offset="0%"></stop>
            <stop stop-color="#64D8A2" offset="100%"></stop>
        </linearGradient>
    </defs>
		<g>
				<path d="M231.385192,105.753666 C243.693045,105.162254 254.589241,114.710531 255.651902,127.030923 C260.255723,186.627723 206.695298,253.278629 129.833649,255.413356 C117.515347,255.756082 107.253404,246.019723 106.911723,233.667984 C106.571086,221.315201 116.279233,211.025046 128.597535,210.682319 C179.588555,209.266482 211.891576,165.222988 210.167494,129.174009 C209.577127,116.831674 219.076294,106.346123 231.385192,105.753666 Z" fill="url(#linearGradient-1)"></path>
				<path d="M22.5511546,104.48516 C34.8738452,104.48516 44.8633832,114.502597 44.8633832,126.85956 C44.8633832,178.434678 86.3330844,211.812899 127.753257,210.790988 C140.072604,210.486923 150.304245,220.254629 150.607266,232.607413 C150.911331,244.961241 141.169747,255.222139 128.851445,255.526205 C64.0788477,257.123854 0.017481991,205.267658 0.017481991,126.85956 C0.017481991,114.502597 10.228464,104.48516 22.5511546,104.48516 Z" fill="url(#linearGradient-2)"></path>
				<path d="M175.646155,128.59409 C175.646155,115.943511 185.965568,105.687837 198.694515,105.687837 L232.283804,105.687837 C245.013796,105.687837 255.651902,115.943511 255.651902,128.59409 C255.651902,141.245715 245.013796,151.501388 232.283804,151.501388 L198.694515,151.501388 C185.965568,151.501388 175.646155,141.245715 175.646155,128.59409 Z" fill="url(#linearGradient-3)" fill-rule="nonzero"></path>
				<path d="M105.167788,128.627527 C105.167788,115.958139 115.421372,105.687837 128.055233,105.687837 C140.690139,105.687837 150.943723,115.958139 150.943723,128.627527 C150.943723,141.296915 140.690139,151.568262 128.055233,151.568262 C115.421372,151.568262 105.167788,141.296915 105.167788,128.627527 Z" fill="url(#linearGradient-4)" fill-rule="nonzero"></path>
				<path d="M150.30947,21.4461786 C150.82147,33.7924839 141.254384,44.2166994 128.942351,44.7294309 C75.7930942,46.9428382 43.3459824,88.7162913 44.9253457,128.380931 C45.4169701,140.727446 36.0337865,151.136719 23.7209179,151.629911 C11.4080493,152.123103 0.580146899,142.157911 0.0885098702,129.811397 C-2.4852274,65.1737998 51.3350632,1.27453845 127.090792,0.0196327146 C139.402825,-0.493101849 149.798515,9.09988375 150.30947,21.4461786 Z" fill="url(#linearGradient-5)"></path>
		</g>
</svg>

<svg preserveAspectRatio="xMidYMid" viewBox="0 0 256 256" xmlns="http://www.w3.org/2000/svg">
  <defs>
    <linearGradient id="gridsome-icon_svg__a" x1="20.938%" x2="67.331%" y1="135.775%" y2="141.765%">
      <stop offset="0%" stop-color="#1A7D75"/>
      <stop offset="100%" stop-color="#1A8864"/>
    </linearGradient>
    <linearGradient id="gridsome-icon_svg__b" x1="5.879%" x2="-17.306%" y1="11.117%" y2="72.271%">
      <stop offset="1.293%" stop-color="#168A81"/>
      <stop offset="100%" stop-color="#31A97F"/>
    </linearGradient>
    <linearGradient id="gridsome-icon_svg__c" x1="-144.301%" x2="-70.357%" y1="53.433%" y2="117.634%">
      <stop offset="0%" stop-color="#27A59B"/>
      <stop offset="100%" stop-color="#64D8A2"/>
    </linearGradient>
    <linearGradient id="gridsome-icon_svg__d" x1="-143.419%" x2="-4.693%" y1="60.471%" y2="180.917%">
      <stop offset="0%" stop-color="#27A59B"/>
      <stop offset="100%" stop-color="#64D8A2"/>
    </linearGradient>
    <linearGradient id="gridsome-icon_svg__e" x1="208.845%" x2="86.111%" y1="-141.921%" y2="-183.711%">
      <stop offset="0%" stop-color="#27A59B"/>
      <stop offset="100%" stop-color="#64D8A2"/>
    </linearGradient>
  </defs>
  <path fill="url(#gridsome-icon_svg__a)" d="M231.385 105.754c12.308-.592 23.204 8.957 24.267 21.277 4.604 59.597-48.957 126.248-125.818 128.382-12.319.343-22.58-9.393-22.922-21.745-.34-12.353 9.367-22.643 21.686-22.986 50.99-1.416 83.294-45.459 81.57-81.508-.59-12.342 8.908-22.828 21.217-23.42Z"/>
  <path fill="url(#gridsome-icon_svg__b)" d="M22.551 104.485c12.323 0 22.312 10.018 22.312 22.375 0 51.575 41.47 84.953 82.89 83.931 12.32-.304 22.551 9.464 22.854 21.816.304 12.354-9.437 22.615-21.756 22.92C64.08 257.123.017 205.266.017 126.86c0-12.357 10.211-22.375 22.534-22.375Z"/>
  <path fill="url(#gridsome-icon_svg__c)" d="M175.646 128.594c0-12.65 10.32-22.906 23.049-22.906h33.589c12.73 0 23.368 10.256 23.368 22.906 0 12.652-10.638 22.907-23.368 22.907h-33.59c-12.728 0-23.048-10.255-23.048-22.907Z"/>
  <path fill="url(#gridsome-icon_svg__d)" d="M105.168 128.628c0-12.67 10.253-22.94 22.887-22.94 12.635 0 22.889 10.27 22.889 22.94 0 12.669-10.254 22.94-22.889 22.94-12.634 0-22.887-10.271-22.887-22.94Z"/>
  <path fill="url(#gridsome-icon_svg__e)" d="M150.31 21.446c.511 12.346-9.056 22.77-21.368 23.283-53.149 2.214-85.596 43.987-84.017 83.652.492 12.346-8.891 22.756-21.204 23.249-12.313.493-23.14-9.472-23.632-21.819C-2.485 65.174 51.335 1.275 127.09.02c12.312-.513 22.708 9.08 23.218 21.426Z"/>
</svg>
